icons/smartphone.svg

<svg width="24" height="24" viewBox="0 0 24 24" fill="none" xmlns="http://www.w3.org/2000/svg">
<path fill-rule="evenodd" clip-rule="evenodd" d="M5 3C5 2.44772 5.44772 2 6 2H18C18.5523 2 19 2.44772 19 3V21C19 21.5523 18.5523 22 18 22H6C5.44772 22 5 21.5523 5 21V3ZM7 4V20H17V4H7ZM11 18C11 17.4477 11.4477 17 12 17H12.01C12.5623 17 13.01 17.4477 13.01 18C13.01 18.5523 12.5623 19 12.01 19H12C11.4477 19 11 18.5523 11 18Z" fill="black"/>
</svg>

<svg
  width="24"
  height="24"
  viewBox="0 0 24 24"
  xmlns="http://www.w3.org/2000/svg"
>
  <path
    fill-rule="evenodd"
    clip-rule="evenodd"
    d="M5 3a1 1 0 0 1 1-1h12a1 1 0 0 1 1 1v18a1 1 0 0 1-1 1H6a1 1 0 0 1-1-1V3zm2 1v16h10V4H7zm4 14a1 1 0 0 1 1-1h.01a1 1 0 1 1 0 2H12a1 1 0 0 1-1-1z"
  />
</svg>
